X: 272
T:Morfa Rhiddlan
T:Rhiddlan's Marsh
M:3/4
L:1/4
O:Welsh
Z:Kevin Gow
K:Am
AAc/2e/2|ddc|BB/2c/2 B/2A/2|^G/2B/2EE|
AAc/2e/2|d f/2e/2 d/2c/2|B/2c/4B/4A^G|1A2E:|2A2z||!
|:ee/2f/2 g/2e/2|dd/2e/2 f/2d/2|ccB|ccd|
ee/2f/2 g/2e/2|dd/2e/2 f/2d/2|c/2f/2 e/2d/2 c/2B/2|ccd|!
ec/2d/2 e/2c/2|dB/2c/2 d/2B/2|cA/2c/2 B/2A/2|^G/2B/2EE|
AAc/2e/2|df/2e/2 d/2c/2|B/2c/4B/4A^G|1A2A:|2A2z||
<end>
<start>
